docs/local/img/sprites/ruble.svg

<svg width="24" height="24" viewBox="0 0 24 24" xmlns="http://www.w3.org/2000/svg">
<circle cx="12" cy="12" r="12"/>
<circle cx="12" cy="12" r="10" fill="white"/>
<path d="M13.2635 13.5067C18.2473 13.33 18.2437 6.17516 13.2635 6H11.2558C9.73337 6 8.49509 7.2351 8.49509 8.75245V12.0054H7.74218C6.75236 12.0224 6.75286 13.4902 7.74218 13.5067H8.49509V14.5076H7.74218C6.75236 14.5246 6.75286 15.9924 7.74218 16.0089H8.49509V17.26C8.51215 18.2469 9.98434 18.2464 10.0009 17.26V16.0089H13.2635C14.2533 15.9919 14.2528 14.5241 13.2635 14.5076H10.0009V13.5067H13.2635ZM10.0009 8.75245C10.0009 8.06234 10.5641 7.50134 11.2558 7.50134H13.2635C16.2425 7.57941 16.2405 11.9283 13.2635 12.0054H10.0009V8.75245Z"/>
</svg>

<svg width="24" height="24" viewBox="0 0 24 24" xmlns="http://www.w3.org/2000/svg"><circle cx="12" cy="12" r="12"/><circle cx="12" cy="12" r="10" fill="#fff"/><path d="M13.264 13.507c4.983-.177 4.98-7.332 0-7.507h-2.008a2.76 2.76 0 00-2.76 2.752v3.253h-.754c-.99.017-.99 1.485 0 1.502h.753v1h-.753c-.99.018-.99 1.485 0 1.502h.753v1.251c.017.987 1.49.986 1.506 0v-1.251h3.263c.99-.017.989-1.485 0-1.501H10v-1.001h3.263zM10 8.752c0-.69.563-1.25 1.255-1.25h2.008c2.979.077 2.977 4.426 0 4.503H10V8.752z"/></svg>.2528 14.5241 13.2635 14.5076H10.0009V13.5067H13.2635ZM10.0009 8.75245C10.0009 8.06234 10.5641 7.50134 11.2558 7.50134H13.2635C16.2425 7.57941 16.2405 11.9283 13.2635 12.0054H10.0009V8.75245Z"/>
</svg>
